X: 346
T: The Maid Behind The Bar
M:4/4
L:1/8
R: Reel
Q:280
N: P.g.Mulvaney's setting, based on Mark Roberts'
Z:P.g.Mulvaney
K:D
(F || A3) B AF{F}EF | DA{B}AF ABde | f~B3 Bcde | ~f2 af e(3fed B |
AFAB AFEF | DA{B}AF ABde | f~B3 BcdB |1 AFEG FE D2 :|2 AFEF D  de||
fa(3aaa fede | fa(3aaa fedf | ~g2 ga beef  | ~g2 ga beeg  |
~f2 af bfaf | defd efde | fB{c}BA BcdB |1  AFEF D2 DE :|2   AFEF "cran"D
4 |
<end>
<start>
